svg/black/hash.svg

<?xml version="1.0" encoding="UTF-8"?>
<svg xmlns="http://www.w3.org/2000/svg" xmlns:xlink="http://www.w3.org/1999/xlink" width="32px" height="32px" viewBox="0 0 32 32" version="1.1">
<g id="surface1">
<path style=" stroke:none;fill-rule:evenodd;fill:rgb(16.470588%,49.019608%,88.235294%);fill-opacity:1;" d="M 16.480469 1.523438 C 16.277344 1.425781 16.042969 1.375 15.808594 1.375 C 15.570312 1.375 15.339844 1.425781 15.132812 1.523438 L 0.675781 8.484375 C 0.46875 8.582031 0.300781 8.722656 0.179688 8.894531 C 0.0625 9.0625 0 9.257812 0 9.453125 L 0 23.375 C 0 23.574219 0.0625 23.765625 0.179688 23.933594 C 0.300781 24.105469 0.46875 24.246094 0.675781 24.34375 L 6.53125 27.167969 L 6.53125 13.054688 C 6.535156 12.863281 6.59375 12.679688 6.703125 12.515625 C 6.816406 12.351562 6.972656 12.210938 7.164062 12.113281 L 11.128906 10.0625 L 15.09375 8.039062 C 15.304688 7.929688 15.546875 7.875 15.796875 7.875 C 16.046875 7.875 16.289062 7.929688 16.5 8.039062 L 20.464844 10.0625 L 24.429688 12.113281 C 24.621094 12.214844 24.78125 12.355469 24.894531 12.523438 C 25.003906 12.691406 25.0625 12.878906 25.0625 13.070312 L 25.0625 19.75 C 25.066406 19.941406 25.007812 20.132812 24.898438 20.300781 C 24.785156 20.46875 24.625 20.609375 24.429688 20.707031 L 20.464844 22.765625 L 16.5 24.78125 C 16.125 24.976562 15.746094 24.65625 15.746094 24.285156 L 15.746094 21.640625 C 15.78125 21.460938 15.867188 21.292969 15.996094 21.148438 C 16.128906 21.003906 16.300781 20.890625 16.5 20.816406 L 19.820312 19.105469 C 20.015625 19.003906 20.175781 18.863281 20.285156 18.695312 C 20.398438 18.527344 20.453125 18.339844 20.453125 18.148438 L 20.453125 15.414062 C 20.453125 15.226562 20.394531 15.042969 20.28125 14.878906 C 20.171875 14.71875 20.011719 14.578125 19.820312 14.480469 L 16.519531 12.832031 C 16.308594 12.722656 16.066406 12.664062 15.816406 12.664062 C 15.566406 12.664062 15.324219 12.722656 15.113281 12.832031 L 11.824219 14.480469 C 11.625 14.578125 11.464844 14.714844 11.347656 14.875 C 11.234375 15.039062 11.171875 15.226562 11.167969 15.414062 L 11.167969 29.183594 C 11.171875 29.230469 11.171875 29.28125 11.167969 29.332031 L 15.132812 31.246094 C 15.339844 31.34375 15.570312 31.394531 15.808594 31.394531 C 16.042969 31.394531 16.277344 31.34375 16.480469 31.246094 L 30.949219 24.285156 C 31.152344 24.1875 31.324219 24.046875 31.441406 23.878906 C 31.5625 23.707031 31.625 23.515625 31.625 23.320312 L 31.625 9.453125 C 31.625 9.257812 31.5625 9.0625 31.441406 8.894531 C 31.324219 8.722656 31.152344 8.582031 30.949219 8.484375 Z M 16.480469 1.523438 "/>
</g>
</svg>

<svg xmlns="http://www.w3.org/2000/svg" width="32" height="32" viewBox="0 0 32 32"><path d="M16.48 1.523a1.6 1.6 0 0 0-.671-.148c-.239 0-.47.05-.676.148L.676 8.484a1.25 1.25 0 0 0-.496.41 1 1 0 0 0-.18.56v13.921c0 .2.063.39.18.559.12.171.289.312.496.41l5.855 2.824V13.055a1 1 0 0 1 .172-.54 1.25 1.25 0 0 1 .461-.402l3.965-2.05 3.965-2.024c.21-.11.453-.164.703-.164s.492.055.703.164l3.965 2.024 3.965 2.05c.191.102.351.242.465.41a1 1 0 0 1 .168.547v6.68a1 1 0 0 1-.165.55 1.2 1.2 0 0 1-.468.407l-3.965 2.059L16.5 24.78c-.375.196-.754-.125-.754-.496V21.64a1.04 1.04 0 0 1 .25-.493 1.3 1.3 0 0 1 .504-.332l3.32-1.71a1.2 1.2 0 0 0 .465-.41.97.97 0 0 0 .168-.548v-2.734a.94.94 0 0 0-.172-.535c-.11-.16-.27-.3-.46-.399l-3.301-1.648a1.5 1.5 0 0 0-.704-.168c-.25 0-.492.059-.703.168l-3.289 1.648c-.199.098-.36.235-.476.395a1 1 0 0 0-.18.54v13.769a1 1 0 0 1 0 .148l3.965 1.914c.207.098.437.149.676.149.234 0 .468-.051.671-.149l14.47-6.96c.202-.099.374-.24.491-.407a.96.96 0 0 0 .184-.559V9.453a.96.96 0 0 0-.184-.558 1.24 1.24 0 0 0-.492-.41Zm0 0" style="stroke:none;fill-rule:evenodd;fill:#2a7de1;fill-opacity:1"/></svg>
